svgs/thin/house-flag.svg

<svg xmlns="http://www.w3.org/2000/svg" viewBox="0 0 640 512"><!--! Font Awesome Pro 6.6.0 by @fontawesome - https://fontawesome.com License - https://fontawesome.com/license (Commercial License) Copyright 2024 Fonticons, Inc. --><path d="M456 0c-4.4 0-8 3.6-8 8l0 24s0 0 0 0l0 16 0 128 0 16s0 0 0 0l0 320 16 0 0-320 160 0c8.8 0 16-7.2 16-16l0-128c0-8.8-7.2-16-16-16L464 32l0-24c0-4.4-3.6-8-8-8zm8 176l0-128 160 0 0 128-160 0zm-48-38L276.8 33.6c-2.8-2.1-6.8-2.1-9.6 0l-256 192c-3.5 2.7-4.3 7.7-1.6 11.2s7.7 4.3 11.2 1.6L64 206l0 242c0 35.3 28.7 64 64 64l288 0 0-16-64 0 0-152c0-13.3-10.7-24-24-24l-112 0c-13.3 0-24 10.7-24 24l0 152-64 0c-26.5 0-48-21.5-48-48l0-254L272 50 416 158l0-20zM336 344l0 152-128 0 0-152c0-4.4 3.6-8 8-8l112 0c4.4 0 8 3.6 8 8z"/></svg>

<svg xmlns="http://www.w3.org/2000/svg" viewBox="0 0 640 512"><!--! Font Awesome Pro 6.5.2 by @fontawesome - https://fontawesome.com License - https://fontawesome.com/license (Commercial License) Copyright 2024 Fonticons, Inc. --><path d="M456 0c-4.4 0-8 3.6-8 8V32h0V48 176v16h0V512h16V192H624c8.8 0 16-7.2 16-16V48c0-8.8-7.2-16-16-16H464V8c0-4.4-3.6-8-8-8zm8 176V48H624V176H464zm-48-38L276.8 33.6c-2.8-2.1-6.8-2.1-9.6 0l-256 192c-3.5 2.7-4.3 7.7-1.6 11.2s7.7 4.3 11.2 1.6L64 206V448c0 35.3 28.7 64 64 64H416V496H352V344c0-13.3-10.7-24-24-24H216c-13.3 0-24 10.7-24 24V496H128c-26.5 0-48-21.5-48-48V194L272 50 416 158V138zM336 344V496l-128 0V344c0-4.4 3.6-8 8-8H328c4.4 0 8 3.6 8 8z"/></svg>
